X:292
T:Tam the Banjo
S:Heather Goodfellow
Z:robin.beech@mcgill.ca
R:reel
M:2/4
L:1/8
K:Gmin
B,A, B,C | B,G, G>F | DC B,>A, | B,/C/ A,- A,/G,/ A,/C/ |
B,A, B,C | B,G, G>F | E>D E/D/C/D/ | E/D/C/D/ B,A, ::
B>A B/A/G/A/ | B/A/G/A/ FD | dg f>f | f/e/ e2 ^FD |
B>A B/A/G/A/ | B/A/G/A/ FD | E>D E/D/C/D/ | E/D/C/D/ B,A, ::
